images/16758518.svg

<?xml version="1.0" encoding="UTF-8"?>
<svg xmlns="http://www.w3.org/2000/svg" xmlns:xlink="http://www.w3.org/1999/xlink" width="300pt" height="300pt" viewBox="0 0 300 300" version="1.1">
<defs>
<g>
<symbol overflow="visible" id="glyph0-0">
<path style="stroke:none;" d="M 0.640625 2.296875 L 0.640625 -9.171875 L 7.140625 -9.171875 L 7.140625 2.296875 Z M 1.375 1.578125 L 6.421875 1.578125 L 6.421875 -8.4375 L 1.375 -8.4375 Z M 1.375 1.578125 "/>
</symbol>
<symbol overflow="visible" id="glyph0-1">
<path style="stroke:none;" d="M 5.125 -8.609375 C 4.1875 -8.609375 3.441406 -8.257812 2.890625 -7.5625 C 2.347656 -6.875 2.078125 -5.929688 2.078125 -4.734375 C 2.078125 -3.535156 2.347656 -2.585938 2.890625 -1.890625 C 3.441406 -1.203125 4.1875 -0.859375 5.125 -0.859375 C 6.050781 -0.859375 6.785156 -1.203125 7.328125 -1.890625 C 7.878906 -2.585938 8.15625 -3.535156 8.15625 -4.734375 C 8.15625 -5.929688 7.878906 -6.875 7.328125 -7.5625 C 6.785156 -8.257812 6.050781 -8.609375 5.125 -8.609375 Z M 5.125 -9.65625 C 6.445312 -9.65625 7.503906 -9.207031 8.296875 -8.3125 C 9.097656 -7.414062 9.5 -6.222656 9.5 -4.734375 C 9.5 -3.234375 9.097656 -2.035156 8.296875 -1.140625 C 7.503906 -0.253906 6.445312 0.1875 5.125 0.1875 C 3.789062 0.1875 2.722656 -0.253906 1.921875 -1.140625 C 1.128906 -2.035156 0.734375 -3.234375 0.734375 -4.734375 C 0.734375 -6.222656 1.128906 -7.414062 1.921875 -8.3125 C 2.722656 -9.207031 3.789062 -9.65625 5.125 -9.65625 Z M 5.125 -9.65625 "/>
</symbol>
<symbol overflow="visible" id="glyph0-2">
<path style="stroke:none;" d="M 1.28125 -9.484375 L 2.5625 -9.484375 L 2.5625 -5.59375 L 7.21875 -5.59375 L 7.21875 -9.484375 L 8.5 -9.484375 L 8.5 0 L 7.21875 0 L 7.21875 -4.515625 L 2.5625 -4.515625 L 2.5625 0 L 1.28125 0 Z M 1.28125 -9.484375 "/>
</symbol>
</g>
</defs>
<g id="surface30225">
<rect x="0" y="0" width="300" height="300" style="fill:rgb(100%,100%,100%);fill-opacity:1;stroke:none;"/>
<path style="fill:none;stroke-width:1.2;stroke-linecap:butt;stroke-linejoin:miter;stroke:rgb(0%,0%,0%);stroke-opacity:1;stroke-miterlimit:10;" d="M 166.054688 244.042969 L 169.1875 228.105469 "/>
<path style="fill:none;stroke-width:1.2;stroke-linecap:butt;stroke-linejoin:miter;stroke:rgb(100%,0%,0%);stroke-opacity:1;stroke-miterlimit:10;" d="M 169.1875 228.105469 L 172.320312 212.167969 "/>
<path style="fill:none;stroke-width:1.2;stroke-linecap:butt;stroke-linejoin:miter;stroke:rgb(100%,0%,0%);stroke-opacity:1;stroke-miterlimit:10;" d="M 172.320312 212.167969 L 160.082031 201.484375 "/>
<path style="fill:none;stroke-width:1.2;stroke-linecap:butt;stroke-linejoin:miter;stroke:rgb(0%,0%,0%);stroke-opacity:1;stroke-miterlimit:10;" d="M 160.082031 201.484375 L 147.84375 190.804688 "/>
<path style=" stroke:none;fill-rule:nonzero;fill:rgb(100%,100%,100%);fill-opacity:1;" d="M 167.320312 204.167969 L 178.320312 204.167969 L 178.320312 220.167969 L 167.320312 220.167969 Z M 167.320312 204.167969 "/>
<g style="fill:rgb(100%,0%,0%);fill-opacity:1;">
  <use xlink:href="#glyph0-1" x="167.320312" y="216.543945"/>
</g>
<path style="fill:none;stroke-width:1.2;stroke-linecap:butt;stroke-linejoin:miter;stroke:rgb(0%,0%,0%);stroke-opacity:1;stroke-miterlimit:10;" d="M 146.609375 187.1875 L 131.242188 192.445312 "/>
<path style="fill:none;stroke-width:1.2;stroke-linecap:butt;stroke-linejoin:miter;stroke:rgb(100%,0%,0%);stroke-opacity:1;stroke-miterlimit:10;" d="M 131.242188 192.445312 L 115.871094 197.703125 "/>
<path style="fill:none;stroke-width:1.2;stroke-linecap:butt;stroke-linejoin:miter;stroke:rgb(0%,0%,0%);stroke-opacity:1;stroke-miterlimit:10;" d="M 149.082031 194.421875 L 133.714844 199.675781 "/>
<path style="fill:none;stroke-width:1.2;stroke-linecap:butt;stroke-linejoin:miter;stroke:rgb(100%,0%,0%);stroke-opacity:1;stroke-miterlimit:10;" d="M 133.714844 199.675781 L 118.347656 204.933594 "/>
<path style=" stroke:none;fill-rule:nonzero;fill:rgb(0%,0%,0%);fill-opacity:1;" d="M 154.109375 158.929688 L 142.21875 189.699219 L 153.46875 191.910156 Z M 154.109375 158.929688 "/>
<path style=" stroke:none;fill-rule:nonzero;fill:rgb(100%,100%,100%);fill-opacity:1;" d="M 106.109375 193.320312 L 117.109375 193.320312 L 117.109375 209.320312 L 106.109375 209.320312 Z M 106.109375 193.320312 "/>
<g style="fill:rgb(100%,0%,0%);fill-opacity:1;">
  <use xlink:href="#glyph0-1" x="106.109375" y="205.696289"/>
</g>
<path style="fill:none;stroke-width:1.2;stroke-linecap:butt;stroke-linejoin:miter;stroke:rgb(0%,0%,0%);stroke-opacity:1;stroke-miterlimit:10;" d="M 154.109375 158.929688 L 132.003906 135.125 "/>
<path style="fill:none;stroke-width:1.2;stroke-linecap:butt;stroke-linejoin:miter;stroke:rgb(0%,0%,0%);stroke-opacity:1;stroke-miterlimit:10;" d="M 186.097656 147.972656 L 154.109375 158.929688 "/>
<path style="fill:none;stroke-width:1.2;stroke-linecap:butt;stroke-linejoin:miter;stroke:rgb(0%,0%,0%);stroke-opacity:1;stroke-miterlimit:10;" d="M 132.003906 135.125 L 147.808594 106.746094 "/>
<path style=" stroke:none;fill-rule:nonzero;fill:rgb(0%,0%,0%);fill-opacity:1;" d="M 132.003906 135.125 L 99.0625 133.328125 L 100.4375 144.710938 Z M 132.003906 135.125 "/>
<path style="fill:none;stroke-width:1.2;stroke-linecap:butt;stroke-linejoin:miter;stroke:rgb(0%,0%,0%);stroke-opacity:1;stroke-miterlimit:10;" d="M 147.808594 106.746094 L 155.050781 138.414062 "/>
<path style="fill:none;stroke-width:1;stroke-linecap:butt;stroke-linejoin:miter;stroke:rgb(0%,0%,0%);stroke-opacity:1;stroke-miterlimit:10;" d="M 147.808594 106.746094 L 147.808594 106.746094 M 145.140625 105.378906 L 144.832031 106.375 M 142.46875 104.011719 L 141.855469 106.003906 M 139.796875 102.644531 L 138.878906 105.632812 M 137.128906 101.277344 L 135.902344 105.261719 M 134.457031 99.90625 L 132.925781 104.890625 M 131.789062 98.539062 L 129.945312 104.519531 M 129.117188 97.171875 L 126.96875 104.148438 M 126.449219 95.804688 L 123.992188 103.777344 M 123.777344 94.4375 L 121.015625 103.40625 M 121.109375 93.070312 L 118.039062 103.035156 M 118.449219 91.707031 L 115.074219 102.664062 "/>
<path style="fill:none;stroke-width:1.2;stroke-linecap:butt;stroke-linejoin:miter;stroke:rgb(100%,0%,0%);stroke-opacity:1;stroke-miterlimit:10;" d="M 171.613281 84.640625 L 159.710938 95.691406 "/>
<path style="fill:none;stroke-width:1.2;stroke-linecap:butt;stroke-linejoin:miter;stroke:rgb(0%,0%,0%);stroke-opacity:1;stroke-miterlimit:10;" d="M 159.710938 95.691406 L 147.808594 106.746094 "/>
<path style="fill:none;stroke-width:1.2;stroke-linecap:butt;stroke-linejoin:miter;stroke:rgb(0%,0%,0%);stroke-opacity:1;stroke-miterlimit:10;" d="M 155.050781 138.414062 L 186.097656 147.972656 "/>
<path style="fill:none;stroke-width:1;stroke-linecap:butt;stroke-linejoin:miter;stroke:rgb(0%,0%,0%);stroke-opacity:1;stroke-miterlimit:10;" d="M 155.050781 138.414062 L 155.050781 138.414062 M 152.53125 140.042969 L 153.242188 140.804688 M 150.011719 141.671875 L 151.433594 143.199219 M 147.492188 143.300781 L 149.621094 145.589844 M 144.972656 144.925781 L 147.8125 147.984375 M 142.453125 146.554688 L 146.003906 150.375 M 139.933594 148.183594 L 144.191406 152.769531 M 137.414062 149.8125 L 142.382812 155.160156 M 134.894531 151.441406 L 140.574219 157.554688 M 132.375 153.070312 L 138.761719 159.945312 M 129.855469 154.699219 L 136.953125 162.339844 M 127.347656 156.320312 L 135.148438 164.71875 "/>
<path style="fill:none;stroke-width:1.2;stroke-linecap:butt;stroke-linejoin:miter;stroke:rgb(0%,0%,0%);stroke-opacity:1;stroke-miterlimit:10;" d="M 186.097656 147.972656 L 209.902344 125.867188 "/>
<path style=" stroke:none;fill-rule:nonzero;fill:rgb(0%,0%,0%);fill-opacity:1;" d="M 186.097656 147.972656 L 187.753906 180.917969 L 198.929688 178.363281 Z M 186.097656 147.972656 "/>
<path style="fill:none;stroke-width:1.2;stroke-linecap:butt;stroke-linejoin:miter;stroke:rgb(0%,0%,0%);stroke-opacity:1;stroke-miterlimit:10;" d="M 209.902344 125.867188 L 240.945312 135.429688 "/>
<path style="fill:none;stroke-width:1.2;stroke-linecap:butt;stroke-linejoin:miter;stroke:rgb(0%,0%,0%);stroke-opacity:1;stroke-miterlimit:10;" d="M 215.253906 119.519531 L 240.09375 127.167969 "/>
<path style="fill:none;stroke-width:1.2;stroke-linecap:butt;stroke-linejoin:miter;stroke:rgb(0%,0%,0%);stroke-opacity:1;stroke-miterlimit:10;" d="M 202.65625 94.199219 L 209.902344 125.867188 "/>
<path style="fill:none;stroke-width:1.2;stroke-linecap:butt;stroke-linejoin:miter;stroke:rgb(0%,0%,0%);stroke-opacity:1;stroke-miterlimit:10;" d="M 240.945312 135.429688 L 264.75 113.320312 "/>
<path style="fill:none;stroke-width:1.2;stroke-linecap:butt;stroke-linejoin:miter;stroke:rgb(0%,0%,0%);stroke-opacity:1;stroke-miterlimit:10;" d="M 264.75 113.320312 L 257.507812 81.65625 "/>
<path style="fill:none;stroke-width:1.2;stroke-linecap:butt;stroke-linejoin:miter;stroke:rgb(0%,0%,0%);stroke-opacity:1;stroke-miterlimit:10;" d="M 256.574219 111.859375 L 250.78125 86.527344 "/>
<path style="fill:none;stroke-width:1.2;stroke-linecap:butt;stroke-linejoin:miter;stroke:rgb(0%,0%,0%);stroke-opacity:1;stroke-miterlimit:10;" d="M 257.507812 81.65625 L 226.460938 72.09375 "/>
<path style="fill:none;stroke-width:1.2;stroke-linecap:butt;stroke-linejoin:miter;stroke:rgb(0%,0%,0%);stroke-opacity:1;stroke-miterlimit:10;" d="M 226.460938 72.09375 L 202.65625 94.199219 "/>
<path style="fill:none;stroke-width:1.2;stroke-linecap:butt;stroke-linejoin:miter;stroke:rgb(0%,0%,0%);stroke-opacity:1;stroke-miterlimit:10;" d="M 229.28125 79.90625 L 210.238281 97.589844 "/>
<path style="fill:none;stroke-width:1.2;stroke-linecap:butt;stroke-linejoin:miter;stroke:rgb(0%,0%,0%);stroke-opacity:1;stroke-miterlimit:10;" d="M 202.65625 94.199219 L 187.132812 89.421875 "/>
<path style="fill:none;stroke-width:1.2;stroke-linecap:butt;stroke-linejoin:miter;stroke:rgb(100%,0%,0%);stroke-opacity:1;stroke-miterlimit:10;" d="M 187.132812 89.421875 L 171.613281 84.640625 "/>
<path style=" stroke:none;fill-rule:nonzero;fill:rgb(100%,100%,100%);fill-opacity:1;" d="M 166.613281 76.640625 L 177.613281 76.640625 L 177.613281 92.640625 L 166.613281 92.640625 Z M 166.613281 76.640625 "/>
<g style="fill:rgb(100%,0%,0%);fill-opacity:1;">
  <use xlink:href="#glyph0-1" x="166.613281" y="89.016602"/>
</g>
<path style=" stroke:none;fill-rule:nonzero;fill:rgb(100%,100%,100%);fill-opacity:1;" d="M 183.339844 171.640625 L 204.339844 171.640625 L 204.339844 187.640625 L 183.339844 187.640625 Z M 183.339844 171.640625 "/>
<g style="fill:rgb(100%,0%,0%);fill-opacity:1;">
  <use xlink:href="#glyph0-1" x="183.339844" y="184.016602"/>
  <use xlink:href="#glyph0-2" x="193.830078" y="184.016602"/>
</g>
<path style=" stroke:none;fill-rule:nonzero;fill:rgb(100%,100%,100%);fill-opacity:1;" d="M 110.25 152.519531 L 131.25 152.519531 L 131.25 168.519531 L 110.25 168.519531 Z M 110.25 152.519531 "/>
<g style="fill:rgb(100%,0%,0%);fill-opacity:1;">
  <use xlink:href="#glyph0-2" x="110.25" y="164.895508"/>
  <use xlink:href="#glyph0-1" x="120.272461" y="164.895508"/>
</g>
<path style="fill:none;stroke-width:1.2;stroke-linecap:butt;stroke-linejoin:miter;stroke:rgb(0%,0%,0%);stroke-opacity:1;stroke-miterlimit:10;" d="M 116.761719 97.1875 L 109.519531 65.519531 "/>
<path style="fill:none;stroke-width:1.2;stroke-linecap:butt;stroke-linejoin:miter;stroke:rgb(0%,0%,0%);stroke-opacity:1;stroke-miterlimit:10;" d="M 108.585938 95.722656 L 102.792969 70.390625 "/>
<path style="fill:none;stroke-width:1.2;stroke-linecap:butt;stroke-linejoin:miter;stroke:rgb(0%,0%,0%);stroke-opacity:1;stroke-miterlimit:10;" d="M 92.960938 119.292969 L 116.761719 97.1875 "/>
<path style="fill:none;stroke-width:1.2;stroke-linecap:butt;stroke-linejoin:miter;stroke:rgb(0%,0%,0%);stroke-opacity:1;stroke-miterlimit:10;" d="M 109.519531 65.519531 L 78.472656 55.957031 "/>
<path style="fill:none;stroke-width:1.2;stroke-linecap:butt;stroke-linejoin:miter;stroke:rgb(0%,0%,0%);stroke-opacity:1;stroke-miterlimit:10;" d="M 78.472656 55.957031 L 54.671875 78.066406 "/>
<path style="fill:none;stroke-width:1.2;stroke-linecap:butt;stroke-linejoin:miter;stroke:rgb(0%,0%,0%);stroke-opacity:1;stroke-miterlimit:10;" d="M 81.292969 63.769531 L 62.253906 81.453125 "/>
<path style="fill:none;stroke-width:1.2;stroke-linecap:butt;stroke-linejoin:miter;stroke:rgb(0%,0%,0%);stroke-opacity:1;stroke-miterlimit:10;" d="M 54.671875 78.066406 L 61.914062 109.730469 "/>
<path style="fill:none;stroke-width:1.2;stroke-linecap:butt;stroke-linejoin:miter;stroke:rgb(0%,0%,0%);stroke-opacity:1;stroke-miterlimit:10;" d="M 61.914062 109.730469 L 92.960938 119.292969 "/>
<path style="fill:none;stroke-width:1.2;stroke-linecap:butt;stroke-linejoin:miter;stroke:rgb(0%,0%,0%);stroke-opacity:1;stroke-miterlimit:10;" d="M 67.269531 103.382812 L 92.105469 111.03125 "/>
<path style="fill:none;stroke-width:1.2;stroke-linecap:butt;stroke-linejoin:miter;stroke:rgb(0%,0%,0%);stroke-opacity:1;stroke-miterlimit:10;" d="M 99.75 139.019531 L 80.253906 113.035156 "/>
<path style="fill:none;stroke-width:1.2;stroke-linecap:butt;stroke-linejoin:miter;stroke:rgb(0%,0%,0%);stroke-opacity:1;stroke-miterlimit:10;" d="M 91.6875 141.007812 L 76.089844 120.222656 "/>
<path style="fill:none;stroke-width:1.2;stroke-linecap:butt;stroke-linejoin:miter;stroke:rgb(0%,0%,0%);stroke-opacity:1;stroke-miterlimit:10;" d="M 86.996094 168.898438 L 99.75 139.019531 "/>
<path style="fill:none;stroke-width:1.2;stroke-linecap:butt;stroke-linejoin:miter;stroke:rgb(0%,0%,0%);stroke-opacity:1;stroke-miterlimit:10;" d="M 80.253906 113.035156 L 48.003906 116.929688 "/>
<path style="fill:none;stroke-width:1.2;stroke-linecap:butt;stroke-linejoin:miter;stroke:rgb(0%,0%,0%);stroke-opacity:1;stroke-miterlimit:10;" d="M 48.003906 116.929688 L 35.25 146.808594 "/>
<path style="fill:none;stroke-width:1.2;stroke-linecap:butt;stroke-linejoin:miter;stroke:rgb(0%,0%,0%);stroke-opacity:1;stroke-miterlimit:10;" d="M 53.757812 122.917969 L 43.554688 146.820312 "/>
<path style="fill:none;stroke-width:1.2;stroke-linecap:butt;stroke-linejoin:miter;stroke:rgb(0%,0%,0%);stroke-opacity:1;stroke-miterlimit:10;" d="M 35.25 146.808594 L 54.746094 172.789062 "/>
<path style="fill:none;stroke-width:1.2;stroke-linecap:butt;stroke-linejoin:miter;stroke:rgb(0%,0%,0%);stroke-opacity:1;stroke-miterlimit:10;" d="M 54.746094 172.789062 L 86.996094 168.898438 "/>
<path style="fill:none;stroke-width:1.2;stroke-linecap:butt;stroke-linejoin:miter;stroke:rgb(0%,0%,0%);stroke-opacity:1;stroke-miterlimit:10;" d="M 57.054688 164.8125 L 82.855469 161.699219 "/>
</g>
</svg>

<svg xmlns="http://www.w3.org/2000/svg" xmlns:xlink="http://www.w3.org/1999/xlink" width="300pt" height="300pt" viewBox="0 0 300 300"><defs><symbol overflow="visible"><path d="M.64 2.297v-11.47h6.5v11.47zm.735-.72h5.047V-8.436H1.375zm0 0"/></symbol><symbol overflow="visible" id="a"><path d="M5.125-8.61c-.938 0-1.684.352-2.234 1.047-.542.688-.812 1.633-.812 2.83 0 1.198.27 2.147.813 2.842.55.687 1.297 1.03 2.235 1.03.926 0 1.66-.343 2.203-1.03.55-.696.828-1.645.828-2.844 0-1.196-.277-2.14-.828-2.829-.543-.695-1.277-1.046-2.203-1.046zm0-1.046c1.32 0 2.38.45 3.172 1.344.8.898 1.203 2.09 1.203 3.578 0 1.5-.402 2.7-1.203 3.593C7.504-.255 6.445.186 5.125.186c-1.336 0-2.402-.44-3.203-1.328C1.13-2.036.734-3.235.734-4.735c0-1.49.395-2.68 1.188-3.579.8-.894 1.867-1.343 3.203-1.343zm0 0"/></symbol><symbol overflow="visible" id="b"><path d="M1.28-9.484h1.282v3.89H7.22v-3.89H8.5V0H7.22v-4.516H2.562V0H1.28zm0 0"/></symbol></defs><g><path fill="#fff" d="M0 0h300v300H0z"/><path d="M166.055 244.043l3.132-15.938" stroke-width="1.2" stroke="#000" stroke-miterlimit="10" fill="none"/><path d="M169.188 228.105l3.132-15.937M172.32 212.168l-12.238-10.684" stroke-width="1.2" stroke="#f00" stroke-miterlimit="10" fill="none"/><path d="M160.082 201.484l-12.238-10.68" stroke-width="1.2" stroke="#000" stroke-miterlimit="10" fill="none"/><path d="M167.32 204.168h11v16h-11zm0 0" fill="#fff"/><use xlink:href="#a" x="167.32" y="216.544" fill="#f00"/><path d="M146.61 187.188l-15.368 5.257" stroke-width="1.2" stroke="#000" stroke-miterlimit="10" fill="none"/><path d="M131.242 192.445l-15.37 5.258" stroke-width="1.2" stroke="#f00" stroke-miterlimit="10" fill="none"/><path d="M149.082 194.422l-15.367 5.254" stroke-width="1.2" stroke="#000" stroke-miterlimit="10" fill="none"/><path d="M133.715 199.676l-15.367 5.258" stroke-width="1.2" stroke="#f00" stroke-miterlimit="10" fill="none"/><path d="M154.11 158.93l-11.89 30.77 11.25 2.21zm0 0"/><path d="M106.11 193.32h11v16h-11zm0 0" fill="#fff"/><use xlink:href="#a" x="106.109" y="205.696" fill="#f00"/><path d="M154.11 158.93l-22.106-23.805M186.098 147.973l-31.99 10.957M132.004 135.125l15.805-28.38" stroke-width="1.2" stroke="#000" stroke-miterlimit="10" fill="none"/><path d="M132.004 135.125l-32.94-1.797 1.374 11.383zm0 0"/><path d="M147.81 106.746l7.24 31.668" stroke-width="1.2" stroke="#000" stroke-miterlimit="10" fill="none"/><path d="M147.81 106.746m-2.67-1.367l-.308.995m-2.363-2.363l-.615 1.992m-2.058-3.36l-.918 2.99m-1.75-4.357l-1.228 3.985m-1.445-5.356l-1.53 4.985m-1.138-6.35l-1.845 5.98m-.828-7.348l-2.148 6.976m-.52-8.343l-2.458 7.972m-.215-9.34l-2.76 8.97m.092-10.337l-3.07 9.965m.41-11.328l-3.376 10.957" stroke="#000" stroke-miterlimit="10" fill="none"/><path d="M171.613 84.64L159.71 95.69" stroke-width="1.2" stroke="#f00" stroke-miterlimit="10" fill="none"/><path d="M159.71 95.69l-11.9 11.056M155.05 138.414l31.048 9.56" stroke-width="1.2" stroke="#000" stroke-miterlimit="10" fill="none"/><path d="M155.05 138.414m-2.52 1.63l.712.76m-3.23.868l1.422 1.527m-3.942.1l2.13 2.29m-4.65-.664l2.84 3.058m-5.36-1.43l3.552 3.82m-6.07-2.19l4.257 4.586m-6.776-2.958l4.97 5.348m-7.49-3.72l5.68 6.115m-8.2-4.485l6.388 6.875m-8.907-5.246l7.098 7.64m-9.605-6.02l7.8 8.4" stroke="#000" stroke-miterlimit="10" fill="none"/><path d="M186.098 147.973l23.804-22.106" stroke-width="1.2" stroke="#000" stroke-miterlimit="10" fill="none"/><path d="M186.098 147.973l1.656 32.945 11.176-2.555zm0 0"/><path d="M209.902 125.867l31.043 9.563M215.254 119.52l24.84 7.648M202.656 94.2l7.246 31.667M240.945 135.43l23.805-22.11M264.75 113.32l-7.242-31.664M256.574 111.86l-5.793-25.333M257.508 81.656l-31.047-9.562M226.46 72.094L202.657 94.2M229.28 79.906L210.24 97.59M202.656 94.2l-15.523-4.778" stroke-width="1.2" stroke="#000" stroke-miterlimit="10" fill="none"/><path d="M187.133 89.422l-15.52-4.78" stroke-width="1.2" stroke="#f00" stroke-miterlimit="10" fill="none"/><path d="M166.613 76.64h11v16h-11zm0 0" fill="#fff"/><use xlink:href="#a" x="166.613" y="89.017" fill="#f00"/><path d="M183.34 171.64h21v16h-21zm0 0" fill="#fff"/><g fill="#f00"><use xlink:href="#a" x="183.34" y="184.017"/><use xlink:href="#b" x="193.83" y="184.017"/></g><path d="M110.25 152.52h21v16h-21zm0 0" fill="#fff"/><g fill="#f00"><use xlink:href="#b" x="110.25" y="164.896"/><use xlink:href="#a" x="120.272" y="164.896"/></g><path d="M116.762 97.188L109.52 65.52M108.586 95.723l-5.793-25.332M92.96 119.293l23.802-22.106M109.52 65.52l-31.047-9.563M78.473 55.957l-23.8 22.11M81.293 63.77l-19.04 17.683M54.672 78.066l7.242 31.664M61.914 109.73l31.047 9.563M67.27 103.383l24.835 7.648M99.75 139.02l-19.496-25.985M91.688 141.008L76.09 120.223M86.996 168.898L99.75 139.02M80.254 113.035l-32.25 3.895M48.004 116.93L35.25 146.81M53.758 122.918L43.555 146.82M35.25 146.81l19.496 25.98M54.746 172.79l32.25-3.892M57.055 164.813l25.8-3.114" stroke-width="1.2" stroke="#000" stroke-miterlimit="10" fill="none"/></g></svg>
